svg/Filled/shield_filled.svg

<svg viewBox="0 0 24 24" xmlns="http://www.w3.org/2000/svg" width="24" height="24"><path d="M11.7 2.39a1 1 0 0 1 .7.04l1.08.51a23 23 0 0 0 5.61 1.88l1.2.24.15.05a.9.9 0 0 1 .58.79c.33 5.64-1.47 9.57-3.56 12.09a13 13 0 0 1-3.1 2.74q-.71.45-1.3.67c-.34.15-.73.26-1.06.26s-.72-.11-1.07-.26a9 9 0 0 1-1.29-.67A13 13 0 0 1 6.54 18c-2.09-2.52-3.89-6.45-3.56-12.1L3 5.76a.9.9 0 0 1 .71-.69l1.2-.24c2.6-.55 3.99-1.08 6.7-2.4z"/></svg>

<svg viewBox="0 0 24 24" xmlns="http://www.w3.org/2000/svg" width="24" height="24"><path d="M11.7 2.39A1 1 0 0 1 12.4 2.43L13.48 2.94A23 23 0 0 0 19.09 4.82L20.44 5.11A.9 .9 0 0 1 21.02 5.9C21.35 11.54 19.55 15.47 17.46 17.99A13 13 0 0 1 14.36 20.73Q13.65 21.18 13.06 21.4C12.72 21.55 12.33 21.66 12 21.66C11.67 21.66 11.28 21.55 10.93 21.4A9 9 0 0 1 9.64 20.73A13 13 0 0 1 6.54 18C4.45 15.48 2.65 11.55 2.98 5.9L3 5.76A.9 .9 0 0 1 3.71 5.07L4.91 4.83C7.51 4.28 8.9 3.75 11.61 2.43Z"/></svg>
